docs/tensors_mpa.svg

<?xml version="1.0" encoding="UTF-8"?>
<svg xmlns="http://www.w3.org/2000/svg" xmlns:xlink="http://www.w3.org/1999/xlink" width="327pt" height="66pt" viewBox="0 0 327 66" version="1.1">
<g id="surface1">
<path style="fill:none;stroke-width:1;stroke-linecap:butt;stroke-linejoin:miter;stroke:rgb(0%,0%,0%);stroke-opacity:1;stroke-miterlimit:4;" d="M 479.511719 564.1875 L 479.511719 592.714844 " transform="matrix(1,0,0,1,-455.6875,-552.3125)"/>
<path style="fill:none;stroke-width:1;stroke-linecap:butt;stroke-linejoin:miter;stroke:rgb(0%,0%,0%);stroke-opacity:1;stroke-miterlimit:4;" d="M 513.511719 564.1875 L 513.511719 592.714844 " transform="matrix(1,0,0,1,-455.6875,-552.3125)"/>
<path style="fill:none;stroke-width:1;stroke-linecap:butt;stroke-linejoin:miter;stroke:rgb(0%,0%,0%);stroke-opacity:1;stroke-miterlimit:4;" d="M 545.007812 564.1875 L 545.007812 592.714844 " transform="matrix(1,0,0,1,-455.6875,-552.3125)"/>
<path style="fill:none;stroke-width:1;stroke-linecap:butt;stroke-linejoin:miter;stroke:rgb(0%,0%,0%);stroke-opacity:1;stroke-miterlimit:4;" d="M 555.007812 564.1875 L 555.007812 592.714844 " transform="matrix(1,0,0,1,-455.6875,-552.3125)"/>
<path style="fill:none;stroke-width:1;stroke-linecap:butt;stroke-linejoin:miter;stroke:rgb(0%,0%,0%);stroke-opacity:1;stroke-miterlimit:4;" d="M 565.007812 564.1875 L 565.007812 592.714844 " transform="matrix(1,0,0,1,-455.6875,-552.3125)"/>
<path style="fill:none;stroke-width:1;stroke-linecap:butt;stroke-linejoin:miter;stroke:rgb(0%,0%,0%);stroke-opacity:1;stroke-miterlimit:4;" d="M 592.269531 564.1875 L 592.269531 592.714844 " transform="matrix(1,0,0,1,-455.6875,-552.3125)"/>
<path style="fill:none;stroke-width:1;stroke-linecap:butt;stroke-linejoin:miter;stroke:rgb(0%,0%,0%);stroke-opacity:1;stroke-miterlimit:4;" d="M 602.269531 564.1875 L 602.269531 592.714844 " transform="matrix(1,0,0,1,-455.6875,-552.3125)"/>
<path style="fill:none;stroke-width:1;stroke-linecap:butt;stroke-linejoin:miter;stroke:rgb(0%,0%,0%);stroke-opacity:1;stroke-miterlimit:4;" d="M 631.007812 564.1875 L 631.007812 592.714844 " transform="matrix(1,0,0,1,-455.6875,-552.3125)"/>
<path style="fill:none;stroke-width:1;stroke-linecap:butt;stroke-linejoin:miter;stroke:rgb(0%,0%,0%);stroke-opacity:1;stroke-miterlimit:4;" d="M 641.007812 564.1875 L 641.007812 592.714844 " transform="matrix(1,0,0,1,-455.6875,-552.3125)"/>
<path style="fill:none;stroke-width:1;stroke-linecap:butt;stroke-linejoin:miter;stroke:rgb(0%,0%,0%);stroke-opacity:1;stroke-miterlimit:4;" d="M 651.007812 564.1875 L 651.007812 592.714844 " transform="matrix(1,0,0,1,-455.6875,-552.3125)"/>
<path style="fill:none;stroke-width:1;stroke-linecap:butt;stroke-linejoin:miter;stroke:rgb(0%,0%,0%);stroke-opacity:1;stroke-miterlimit:4;" d="M 459.6875 566.636719 L 669.292969 566.636719 " transform="matrix(1,0,0,1,-455.6875,-552.3125)"/>
<path style="fill-rule:nonzero;fill:rgb(100%,93.333333%,66.666667%);fill-opacity:1;stroke-width:0.5;stroke-linecap:round;stroke-linejoin:miter;stroke:rgb(0%,0%,0%);stroke-opacity:1;stroke-miterlimit:4;" d="M 470.832031 556.570312 L 488.042969 556.570312 C 489.703125 556.570312 491.042969 557.914062 491.042969 559.570312 L 491.042969 574.640625 C 491.042969 576.300781 489.703125 577.640625 488.042969 577.640625 L 470.832031 577.640625 C 469.171875 577.640625 467.832031 576.300781 467.832031 574.640625 L 467.832031 559.570312 C 467.832031 557.914062 469.171875 556.570312 470.832031 556.570312 Z M 470.832031 556.570312 " transform="matrix(1,0,0,1,-455.6875,-552.3125)"/>
<path style="fill-rule:nonzero;fill:rgb(100%,93.333333%,66.666667%);fill-opacity:1;stroke-width:0.5;stroke-linecap:round;stroke-linejoin:miter;stroke:rgb(0%,0%,0%);stroke-opacity:1;stroke-miterlimit:4;" d="M 504.832031 556.570312 L 522.042969 556.570312 C 523.703125 556.570312 525.042969 557.914062 525.042969 559.570312 L 525.042969 574.640625 C 525.042969 576.300781 523.703125 577.640625 522.042969 577.640625 L 504.832031 577.640625 C 503.171875 577.640625 501.832031 576.300781 501.832031 574.640625 L 501.832031 559.570312 C 501.832031 557.914062 503.171875 556.570312 504.832031 556.570312 Z M 504.832031 556.570312 " transform="matrix(1,0,0,1,-455.6875,-552.3125)"/>
<path style="fill-rule:nonzero;fill:rgb(100%,93.333333%,66.666667%);fill-opacity:1;stroke-width:0.5;stroke-linecap:round;stroke-linejoin:miter;stroke:rgb(0%,0%,0%);stroke-opacity:1;stroke-miterlimit:4;" d="M 538.832031 556.570312 L 571.402344 556.570312 C 573.058594 556.570312 574.402344 557.914062 574.402344 559.570312 L 574.402344 574.640625 C 574.402344 576.300781 573.058594 577.640625 571.402344 577.640625 L 538.832031 577.640625 C 537.171875 577.640625 535.832031 576.300781 535.832031 574.640625 L 535.832031 559.570312 C 535.832031 557.914062 537.171875 556.570312 538.832031 556.570312 Z M 538.832031 556.570312 " transform="matrix(1,0,0,1,-455.6875,-552.3125)"/>
<path style="fill-rule:nonzero;fill:rgb(100%,93.333333%,66.666667%);fill-opacity:1;stroke-width:0.5;stroke-linecap:round;stroke-linejoin:miter;stroke:rgb(0%,0%,0%);stroke-opacity:1;stroke-miterlimit:4;" d="M 586.832031 556.570312 L 607.617188 556.570312 C 609.273438 556.570312 610.617188 557.914062 610.617188 559.570312 L 610.617188 574.640625 C 610.617188 576.300781 609.273438 577.640625 607.617188 577.640625 L 586.832031 577.640625 C 585.171875 577.640625 583.832031 576.300781 583.832031 574.640625 L 583.832031 559.570312 C 583.832031 557.914062 585.171875 556.570312 586.832031 556.570312 Z M 586.832031 556.570312 " transform="matrix(1,0,0,1,-455.6875,-552.3125)"/>
<path style="fill-rule:nonzero;fill:rgb(100%,93.333333%,66.666667%);fill-opacity:1;stroke-width:0.5;stroke-linecap:round;stroke-linejoin:miter;stroke:rgb(0%,0%,0%);stroke-opacity:1;stroke-miterlimit:4;" d="M 624.832031 556.570312 L 657.402344 556.570312 C 659.058594 556.570312 660.402344 557.914062 660.402344 559.570312 L 660.402344 574.640625 C 660.402344 576.300781 659.058594 577.640625 657.402344 577.640625 L 624.832031 577.640625 C 623.171875 577.640625 621.832031 576.300781 621.832031 574.640625 L 621.832031 559.570312 C 621.832031 557.914062 623.171875 556.570312 624.832031 556.570312 Z M 624.832031 556.570312 " transform="matrix(1,0,0,1,-455.6875,-552.3125)"/>
</g>
</svg>

<?xml version="1.0" encoding="UTF-8" standalone="no"?>
<!-- Created with Inkscape (http://www.inkscape.org/) -->

<svg
   xmlns:dc="http://purl.org/dc/elements/1.1/"
   xmlns:cc="http://creativecommons.org/ns#"
   xmlns:rdf="http://www.w3.org/1999/02/22-rdf-syntax-ns#"
   xmlns:svg="http://www.w3.org/2000/svg"
   xmlns="http://www.w3.org/2000/svg"
   xmlns:sodipodi="http://sodipodi.sourceforge.net/DTD/sodipodi-0.dtd"
   xmlns:inkscape="http://www.inkscape.org/namespaces/inkscape"
   width="217.59375"
   height="44.40625"
   id="svg73625"
   version="1.1"
   inkscape:version="0.48.5 r10040"
   sodipodi:docname="tensors_matrixelement.svg">
  <defs
     id="defs73627" />
  <sodipodi:namedview
     id="base"
     pagecolor="#ffffff"
     bordercolor="#666666"
     borderopacity="1.0"
     inkscape:pageopacity="0.0"
     inkscape:pageshadow="2"
     inkscape:zoom="2.8"
     inkscape:cx="51.313087"
     inkscape:cy="20.822837"
     inkscape:document-units="px"
     inkscape:current-layer="layer1"
     showgrid="false"
     fit-margin-top="4"
     fit-margin-left="4"
     fit-margin-right="4"
     fit-margin-bottom="4"
     inkscape:window-width="1920"
     inkscape:window-height="1144"
     inkscape:window-x="0"
     inkscape:window-y="0"
     inkscape:window-maximized="1" />
  <metadata
     id="metadata73630">
    <rdf:RDF>
      <cc:Work
         rdf:about="">
        <dc:format>image/svg+xml</dc:format>
        <dc:type
           rdf:resource="http://purl.org/dc/dcmitype/StillImage" />
        <dc:title></dc:title>
      </cc:Work>
    </rdf:RDF>
  </metadata>
  <g
     inkscape:label="Ebene 1"
     inkscape:groupmode="layer"
     id="layer1"
     transform="translate(-455.6875,-552.3125)">
    <path
       style="fill:none;stroke:#000000;stroke-width:1px;stroke-linecap:butt;stroke-linejoin:miter;stroke-opacity:1"
       d="m 479.51165,564.18736 0,28.52691"
       id="path5165"
       inkscape:connector-curvature="0" />
    <path
       inkscape:connector-curvature="0"
       id="path5167"
       d="m 513.51165,564.18736 0,28.52691"
       style="fill:none;stroke:#000000;stroke-width:1px;stroke-linecap:butt;stroke-linejoin:miter;stroke-opacity:1" />
    <path
       style="fill:none;stroke:#000000;stroke-width:1px;stroke-linecap:butt;stroke-linejoin:miter;stroke-opacity:1"
       d="m 545.00657,564.18736 0,28.52691"
       id="path5169"
       inkscape:connector-curvature="0" />
    <path
       inkscape:connector-curvature="0"
       id="path5171"
       d="m 555.00657,564.18736 0,28.52691"
       style="fill:none;stroke:#000000;stroke-width:1px;stroke-linecap:butt;stroke-linejoin:miter;stroke-opacity:1" />
    <path
       style="fill:none;stroke:#000000;stroke-width:1px;stroke-linecap:butt;stroke-linejoin:miter;stroke-opacity:1"
       d="m 565.00657,564.18736 0,28.52691"
       id="path5173"
       inkscape:connector-curvature="0" />
    <path
       inkscape:connector-curvature="0"
       id="path5175"
       d="m 592.26927,564.18736 0,28.52691"
       style="fill:none;stroke:#000000;stroke-width:1px;stroke-linecap:butt;stroke-linejoin:miter;stroke-opacity:1" />
    <path
       style="fill:none;stroke:#000000;stroke-width:1px;stroke-linecap:butt;stroke-linejoin:miter;stroke-opacity:1"
       d="m 602.26927,564.18736 0,28.52691"
       id="path5177"
       inkscape:connector-curvature="0" />
    <path
       inkscape:connector-curvature="0"
       id="path5179"
       d="m 631.00657,564.18736 0,28.52691"
       style="fill:none;stroke:#000000;stroke-width:1px;stroke-linecap:butt;stroke-linejoin:miter;stroke-opacity:1" />
    <path
       style="fill:none;stroke:#000000;stroke-width:1px;stroke-linecap:butt;stroke-linejoin:miter;stroke-opacity:1"
       d="m 641.00657,564.18736 0,28.52691"
       id="path5181"
       inkscape:connector-curvature="0" />
    <path
       inkscape:connector-curvature="0"
       id="path5183"
       d="m 651.00657,564.18736 0,28.52691"
       style="fill:none;stroke:#000000;stroke-width:1px;stroke-linecap:butt;stroke-linejoin:miter;stroke-opacity:1" />
    <path
       style="fill:none;stroke:#000000;stroke-width:1px;stroke-linecap:butt;stroke-linejoin:miter;stroke-opacity:1"
       d="m 459.68774,566.63838 209.60665,0"
       id="path5163"
       inkscape:connector-curvature="0"
       sodipodi:nodetypes="cc" />
    <rect
       ry="3"
       rx="2.9999998"
       y="556.57092"
       x="467.83063"
       height="21.071428"
       width="23.214285"
       id="rect11957-6"
       style="fill:#ffeeaa;fill-opacity:1;stroke:#000000;stroke-width:0.5;stroke-linecap:round;stroke-linejoin:miter;stroke-miterlimit:4;stroke-opacity:1;stroke-dasharray:none;stroke-dashoffset:0" />
    <rect
       style="fill:#ffeeaa;fill-opacity:1;stroke:#000000;stroke-width:0.5;stroke-linecap:round;stroke-linejoin:miter;stroke-miterlimit:4;stroke-opacity:1;stroke-dasharray:none;stroke-dashoffset:0"
       id="rect5153"
       width="23.214285"
       height="21.071428"
       x="501.8306"
       y="556.57092"
       rx="2.9999998"
       ry="3" />
    <rect
       ry="3"
       rx="2.9999998"
       y="556.57092"
       x="535.83057"
       height="21.071428"
       width="38.571426"
       id="rect5155"
       style="fill:#ffeeaa;fill-opacity:1;stroke:#000000;stroke-width:0.5;stroke-linecap:round;stroke-linejoin:miter;stroke-miterlimit:4;stroke-opacity:1;stroke-dasharray:none;stroke-dashoffset:0" />
    <rect
       style="fill:#ffeeaa;fill-opacity:1;stroke:#000000;stroke-width:0.5;stroke-linecap:round;stroke-linejoin:miter;stroke-miterlimit:4;stroke-opacity:1;stroke-dasharray:none;stroke-dashoffset:0"
       id="rect5157"
       width="26.785711"
       height="21.071428"
       x="583.83063"
       y="556.57092"
       rx="2.9999998"
       ry="3" />
    <rect
       style="fill:#ffeeaa;fill-opacity:1;stroke:#000000;stroke-width:0.5;stroke-linecap:round;stroke-linejoin:miter;stroke-miterlimit:4;stroke-opacity:1;stroke-dasharray:none;stroke-dashoffset:0"
       id="rect5161"
       width="38.571426"
       height="21.071428"
       x="621.83063"
       y="556.57092"
       rx="2.9999998"
       ry="3" />
  </g>
</svg>
